icons/pantone-line.svg

<svg viewBox="0 0 24 24" fill="currentColor" xmlns="http://www.w3.org/2000/svg"><path d="M5.7646 7.99998L5.46944 7.26944C5.26255 6.75737 5.50995 6.17454 6.02202 5.96765L15.2939 2.22158C15.8059 2.01469 16.3888 2.26209 16.5956 2.77416L22.2147 16.6819C22.4216 17.194 22.1742 17.7768 21.6622 17.9837L12.3903 21.7298C11.8783 21.9367 11.2954 21.6893 11.0885 21.1772L11.0002 20.9586V21H7.00021C6.44792 21 6.00021 20.5523 6.00021 20V19.7303L2.65056 18.377C2.13849 18.1701 1.89109 17.5873 2.09798 17.0752L5.7646 7.99998ZM8.00021 19H10.2089L8.00021 13.5333V19ZM6.00021 12.7558L4.32696 16.8972L6.00021 17.6084V12.7558ZM7.69842 7.44741L12.5683 19.5008L19.9858 16.5039L15.1159 4.45055L7.69842 7.44741ZM10.6766 9.47974C10.1645 9.68663 9.5817 9.43924 9.37481 8.92717C9.16792 8.4151 9.41532 7.83227 9.92739 7.62538C10.4395 7.41849 11.0223 7.66588 11.2292 8.17795C11.4361 8.69002 11.1887 9.27286 10.6766 9.47974Z"/></svg>

<svg xmlns="http://www.w3.org/2000/svg" viewBox="0 0 24 24">
    <g>
        <path fill="none" d="M0 0h24v24H0z"/>
        <path d="M5.764 8l-.295-.73a1 1 0 0 1 .553-1.302l9.272-3.746a1 1 0 0 1 1.301.552l5.62 13.908a1 1 0 0 1-.553 1.302L12.39 21.73a1 1 0 0 1-1.302-.553L11 20.96V21H7a1 1 0 0 1-1-1v-.27l-3.35-1.353a1 1 0 0 1-.552-1.302L5.764 8zM8 19h2.209L8 13.533V19zm-2-6.244l-1.673 4.141L6 17.608v-4.852zm1.698-5.309l4.87 12.054 7.418-2.997-4.87-12.053-7.418 2.996zm2.978 2.033a1 1 0 1 1-.749-1.855 1 1 0 0 1 .75 1.855z"/>
    </g>
</svg>
